src/pos-icons/earth-arrow-right.svg

<svg height="24" viewBox="0 0 24 24" width="24" xmlns="http://www.w3.org/2000/svg"><path d="m19 21v-2h-4v-2h4v-2l3 3zm-7-3c0-2.2 1.2-4.1 3-5.2-.1-.5-.5-.8-1-.8h-6v-2h2c.6 0 1-.4 1-1v-2h2c1.1 0 2-.9 2-2v-.4c2.9 1.2 5 4 5 7.4v.3c.7.2 1.3.6 1.9 1.1.1-.4.1-.9.1-1.4 0-5.5-4.5-10-10-10s-10 4.5-10 10 4.5 10 10 10c.5 0 1 0 1.4-.1-.9-1.1-1.4-2.4-1.4-3.9m-1 1.9c-4-.5-7-3.8-7-7.9 0-.6.1-1.2.2-1.8l4.8 4.8v1c0 1.1.9 2 2 2z"/></svg>

<?xml version="1.0" encoding="UTF-8"?><!DOCTYPE svg PUBLIC "-//W3C//DTD SVG 1.1//EN" "http://www.w3.org/Graphics/SVG/1.1/DTD/svg11.dtd"><svg xmlns="http://www.w3.org/2000/svg" xmlns:xlink="http://www.w3.org/1999/xlink" version="1.1" id="mdi-earth-arrow-right" width="24" height="24" viewBox="0 0 24 24"><path d="M19 21V19H15V17H19V15L22 18L19 21M12 18C12 15.8 13.2 13.9 15 12.8C14.9 12.3 14.5 12 14 12H8V10H10C10.6 10 11 9.6 11 9V7H13C14.1 7 15 6.1 15 5V4.6C17.9 5.8 20 8.6 20 12V12.3C20.7 12.5 21.3 12.9 21.9 13.4C22 13 22 12.5 22 12C22 6.5 17.5 2 12 2S2 6.5 2 12 6.5 22 12 22C12.5 22 13 22 13.4 21.9C12.5 20.8 12 19.5 12 18M11 19.9C7 19.4 4 16.1 4 12C4 11.4 4.1 10.8 4.2 10.2L9 15V16C9 17.1 9.9 18 11 18V19.9Z" /></svg>
